!!!OTL: "Geheime Liebe" WENN ALLE BRUNNEN FLIESSEN
!!!ARE: Europa, Mitteleuropa, Deutschland, Franken
!!!SCT: Z1175
!!!YEM: Copyright 1995, estate of Helmut Schaffrath.
**kern
*ICvox
*Ivox
*M2/4
*k[b-]
*F:
{16e
16c
=1
8f
8f
8g
8g
=2
8a
8g
8f}
{8a
=3
8b-
8a
8g
8f
=4
4e
8r}
{8e
=5
8f
8f
8g
8g
=6
8a
8g
8f}
{8a
=7
8b-
8a
8g
8f
=8
4g
8r}
{8c
=9
8c
8c
8c
8e
=10
8.f
16f
8f
8r}
=11
{4g
8g
8g
=12
8cc
8cc
8cc}
{8b-
=13
8a
8a
8b-
8g
=14
4f
8r}
==
!!!AGN: Liebes - Lied
!!!ONB: ESAC (Essen Associative Code) Database: ZUCCAL
!!!AMT: simple duple
!!!AIN: vox
!!!EED: Helmut Schaffrath
!!!EEV: 1.0
*-
